icon/fa/street-view.svg

<svg xmlns="http://www.w3.org/2000/svg" viewBox="0 0 512 512"><!--! Font Awesome Free 6.1.2 by @fontawesome - https://fontawesome.com License - https://fontawesome.com/license/free (Icons: CC BY 4.0, Fonts: SIL OFL 1.1, Code: MIT License) Copyright 2022 Fonticons, Inc.--><path d="M320 64c0 35.35-28.7 64-64 64s-64-28.65-64-64 28.7-64 64-64 64 28.65 64 64zm-32 96c35.3 0 64 28.7 64 64v48c0 17.7-14.3 32-32 32h-1.8l-11 99.5c-1.8 16.2-15.5 28.5-31.8 28.5h-38.8c-16.3 0-30-12.3-31.8-28.5l-11-99.5H192c-17.7 0-32-14.3-32-32v-48c0-35.3 28.7-64 64-64h64zM63.27 414.7c-3.18 1.6-5.8 3.1-7.94 4.5-3.63 2.4-3.61 7.2.01 9.6 8.81 5.8 23.14 11.8 42.99 17.3C137.7 456.1 193.5 464 256 464c62.5 0 118.3-7.9 157.7-17.9 19.8-5.5 34.2-11.5 43-17.3 3.6-2.4 3.6-7.2 0-9.6-2.2-1.4-4.8-2.9-8-4.5-15.3-8.6-38.8-14.9-69-20.5-13.1-2.4-21.7-14.9-19.3-27.9 2.4-13 14.9-21.7 27.9-19.3 32.5 5.9 60.9 14.2 82 24.8 10.5 5.3 20.3 11.7 27.7 19.6 7.6 8.1 14 19.1 14 32.6 0 21.4-15.5 36.1-29.1 45-14.7 9.6-34.3 17.3-56.5 23.4C381.8 504.7 321.6 512 256 512c-65.6 0-125.8-7.3-170.43-19.6-22.13-6.1-41.78-13.8-56.45-23.4C15.46 460.1 0 445.4 0 424c0-13.5 6.376-24.5 13.96-32.6 7.48-7.9 17.28-14.3 27.76-19.6 21.03-10.6 49.52-18.9 81.98-24.8 13-2.4 25.5 6.3 27.9 19.3 1.5 13-6.2 25.5-19.3 27.9-30.2 5.6-53.73 11.9-69.03 20.5z"/></svg>

<svg xmlns="http://www.w3.org/2000/svg" viewBox="0 0 512 512" height="1em" width="1em">
<!--! Font Awesome Free 6.1.2 by @fontawesome - https://fontawesome.com License - https://fontawesome.com/license/free (Icons: CC BY 4.0, Fonts: SIL OFL 1.1, Code: MIT License) Copyright 2022 Fonticons, Inc.-->
  <path d="M320 64C320 99.35 291.3 128 256 128C220.7 128 192 99.35 192 64C192 28.65 220.7 0 256 0C291.3 0 320 28.65 320 64zM288 160C323.3 160 352 188.7 352 224V272C352 289.7 337.7 304 320 304H318.2L307.2 403.5C305.4 419.7 291.7 432 275.4 432H236.6C220.3 432 206.6 419.7 204.8 403.5L193.8 304H192C174.3 304 160 289.7 160 272V224C160 188.7 188.7 160 224 160H288zM63.27 414.7C60.09 416.3 57.47 417.8 55.33 419.2C51.7 421.6 51.72 426.4 55.34 428.8C64.15 434.6 78.48 440.6 98.33 446.1C137.7 456.1 193.5 464 256 464C318.5 464 374.3 456.1 413.7 446.1C433.5 440.6 447.9 434.6 456.7 428.8C460.3 426.4 460.3 421.6 456.7 419.2C454.5 417.8 451.9 416.3 448.7 414.7C433.4 406.1 409.9 399.8 379.7 394.2C366.6 391.8 358 379.3 360.4 366.3C362.8 353.3 375.3 344.6 388.3 347C420.8 352.9 449.2 361.2 470.3 371.8C480.8 377.1 490.6 383.5 498 391.4C505.6 399.5 512 410.5 512 424C512 445.4 496.5 460.1 482.9 469C468.2 478.6 448.6 486.3 426.4 492.4C381.8 504.7 321.6 512 256 512C190.4 512 130.2 504.7 85.57 492.4C63.44 486.3 43.79 478.6 29.12 469C15.46 460.1 0 445.4 0 424C0 410.5 6.376 399.5 13.96 391.4C21.44 383.5 31.24 377.1 41.72 371.8C62.75 361.2 91.24 352.9 123.7 347C136.7 344.6 149.2 353.3 151.6 366.3C153.1 379.3 145.4 391.8 132.3 394.2C102.1 399.8 78.57 406.1 63.27 414.7H63.27z"/>
</svg>
